static/img/kroki/a407e39f10c9dbb612e49d893cde515e.svg

<?xml version="1.0" encoding="us-ascii" standalone="no"?><svg xmlns="http://www.w3.org/2000/svg" xmlns:xlink="http://www.w3.org/1999/xlink" contentStyleType="text/css" height="252px" preserveAspectRatio="none" style="width:452px;height:252px;" version="1.1" viewBox="0 0 452 252" width="452px" zoomAndPan="magnify"><defs/><g><!--class azure_cosmos_db_restorable_account--><g id="elem_azure_cosmos_db_restorable_account"><rect codeLine="23" fill="#3D176E" height="39.7891" id="azure_cosmos_db_restorable_account" rx="2.5" ry="2.5" style="stroke:#000D19;stroke-width:0.5;" width="354" x="49" y="7"/><ellipse cx="64" cy="26.8945" fill="#ADD1B2" rx="11" ry="11" style="stroke:#181818;stroke-width:1.0;"/><path d="M66.9688,32.5352 Q66.3906,32.832 65.75,32.9727 Q65.1094,33.1289 64.4063,33.1289 Q61.9063,33.1289 60.5781,31.4883 Q59.2656,29.832 59.2656,26.707 Q59.2656,23.582 60.5781,21.9258 Q61.9063,20.2695 64.4063,20.2695 Q65.1094,20.2695 65.75,20.4258 Q66.4063,20.582 66.9688,20.8789 L66.9688,23.5977 Q66.3438,23.0195 65.75,22.7539 Q65.1563,22.4727 64.5313,22.4727 Q63.1875,22.4727 62.5,23.5508 Q61.8125,24.6133 61.8125,26.707 Q61.8125,28.8008 62.5,29.8789 Q63.1875,30.9414 64.5313,30.9414 Q65.1563,30.9414 65.75,30.6758 Q66.3438,30.3945 66.9688,29.8164 L66.9688,32.5352 Z " fill="#000000"/><text fill="#D9B8FF" font-family="Helvetica" font-size="17" lengthAdjust="spacing" textLength="312" x="83" y="32.7798">azure_cosmos_db_restorable_account</text></g><!--class azure_cosmos_db_restorable_gremlin_database--><g id="elem_azure_cosmos_db_restorable_gremlin_database"><rect codeLine="26" fill="#3D176E" height="39.7891" id="azure_cosmos_db_restorable_gremlin_database" rx="2.5" ry="2.5" style="stroke:#000D19;stroke-width:0.5;" width="438" x="7" y="106.79"/><ellipse cx="22" cy="126.6845" fill="#ADD1B2" rx="11" ry="11" style="stroke:#181818;stroke-width:1.0;"/><path d="M24.9688,132.3252 Q24.3906,132.622 23.75,132.7627 Q23.1094,132.9189 22.4063,132.9189 Q19.9063,132.9189 18.5781,131.2783 Q17.2656,129.622 17.2656,126.497 Q17.2656,123.372 18.5781,121.7158 Q19.9063,120.0595 22.4063,120.0595 Q23.1094,120.0595 23.75,120.2158 Q24.4063,120.372 24.9688,120.6689 L24.9688,123.3877 Q24.3438,122.8095 23.75,122.5439 Q23.1563,122.2627 22.5313,122.2627 Q21.1875,122.2627 20.5,123.3408 Q19.8125,124.4033 19.8125,126.497 Q19.8125,128.5908 20.5,129.6689 Q21.1875,130.7314 22.5313,130.7314 Q23.1563,130.7314 23.75,130.4658 Q24.3438,130.1845 24.9688,129.6064 L24.9688,132.3252 Z " fill="#000000"/><text fill="#D9B8FF" font-family="Helvetica" font-size="17" lengthAdjust="spacing" textLength="396" x="41" y="132.5698">azure_cosmos_db_restorable_gremlin_database</text></g><!--class azure_cosmos_db_restorable_gremlin_graph--><g id="elem_azure_cosmos_db_restorable_gremlin_graph"><rect codeLine="29" fill="#3D176E" height="39.7891" id="azure_cosmos_db_restorable_gremlin_graph" rx="2.5" ry="2.5" style="stroke:#000D19;stroke-width:0.5;" width="411" x="20.5" y="206.58"/><ellipse cx="35.5" cy="226.4745" fill="#ADD1B2" rx="11" ry="11" style="stroke:#181818;stroke-width:1.0;"/><path d="M38.4688,232.1152 Q37.8906,232.412 37.25,232.5527 Q36.6094,232.7089 35.9063,232.7089 Q33.4063,232.7089 32.0781,231.0683 Q30.7656,229.412 30.7656,226.287 Q30.7656,223.162 32.0781,221.5058 Q33.4063,219.8495 35.9063,219.8495 Q36.6094,219.8495 37.25,220.0058 Q37.9063,220.162 38.4688,220.4589 L38.4688,223.1777 Q37.8438,222.5995 37.25,222.3339 Q36.6563,222.0527 36.0313,222.0527 Q34.6875,222.0527 34,223.1308 Q33.3125,224.1933 33.3125,226.287 Q33.3125,228.3808 34,229.4589 Q34.6875,230.5214 36.0313,230.5214 Q36.6563,230.5214 37.25,230.2558 Q37.8438,229.9745 38.4688,229.3964 L38.4688,232.1152 Z " fill="#000000"/><text fill="#D9B8FF" font-family="Helvetica" font-size="17" lengthAdjust="spacing" textLength="369" x="54.5" y="232.3598">azure_cosmos_db_restorable_gremlin_graph</text></g><!--link azure_cosmos_db_restorable_account to azure_cosmos_db_restorable_gremlin_database--><g id="link_azure_cosmos_db_restorable_account_azure_cosmos_db_restorable_gremlin_database"><path codeLine="32" d="M226,47.22 C226,64.36 226,83.27 226,100.41 " fill="none" id="azure_cosmos_db_restorable_account-to-azure_cosmos_db_restorable_gremlin_database" style="stroke:#1A83AF;stroke-width:2.0;"/><polygon fill="#1A83AF" points="226,106.41,230,97.41,226,101.41,222,97.41,226,106.41" style="stroke:#1A83AF;stroke-width:2.0;"/></g><!--link azure_cosmos_db_restorable_gremlin_database to azure_cosmos_db_restorable_gremlin_graph--><g id="link_azure_cosmos_db_restorable_gremlin_database_azure_cosmos_db_restorable_gremlin_graph"><path codeLine="33" d="M226,147.01 C226,164.15 226,183.06 226,200.2 " fill="none" id="azure_cosmos_db_restorable_gremlin_database-to-azure_cosmos_db_restorable_gremlin_graph" style="stroke:#1A83AF;stroke-width:2.0;"/><polygon fill="#1A83AF" points="226,206.2,230,197.2,226,201.2,222,197.2,226,206.2" style="stroke:#1A83AF;stroke-width:2.0;"/></g><!--SRC=[bP1FIyD04CNl-HGBFHSQYxQz2B5Gz5B4UXC9azr9iZIx6sQdbbRyxlQFofhOrbpd_MRUUrDgXG9DpHjXq6H8Fl9BRMiWC28XSkkfgno9Nfv3FXmrnPcpV16OWq5nZzKRifRG99vBBPSMlHTNWNG7SbcGMrbrFCy4rkyaj1nGqmgyJvX9Pol688oQPECyRvBDexsXYaStsC8SAQGlP30Og7ZIH2vQdUtzGopq5aKSFctk65inMnO7wcpAFH64R1NzrazcV0Ibj2t4TJ1xEcOYY_HhlYX1kVMUpg7oeOrd97IygN7QQeMJiSf7Vy8Ff-18xbydOBiYJANpnlbKPIcXPqUGLPY2bBir5kzHz76PBWXDfMsgW243ZntN2eAwFExy8rB_fHSdus4oU-tVTWaLTIdGrUHG8Ve4]--></g></svg>

<svg xmlns="http://www.w3.org/2000/svg" width="452" height="252" viewBox="0 0 452 252"><rect width="354" height="39.789" x="49" y="7" fill="#3D176E" rx="2.5" ry="2.5" style="stroke:#000d19;stroke-width:.5"/><circle cx="64" cy="26.895" r="11" fill="#ADD1B2" style="stroke:#181818;stroke-width:1"/><path d="M66.969 32.535q-.578.297-1.219.438-.64.156-1.344.156-2.5 0-3.828-1.64-1.312-1.657-1.312-4.782t1.312-4.781q1.328-1.656 3.828-1.656.703 0 1.344.156.656.156 1.219.453v2.719q-.625-.578-1.219-.844-.594-.281-1.219-.281-1.344 0-2.031 1.078-.687 1.062-.687 3.156t.687 3.172q.688 1.062 2.031 1.062.625 0 1.219-.265.594-.281 1.219-.86z"/><text x="83" y="32.78" fill="#D9B8FF" font-family="Helvetica" font-size="17" textLength="312">azure_cosmos_db_restorable_account</text><rect width="438" height="39.789" x="7" y="106.79" fill="#3D176E" rx="2.5" ry="2.5" style="stroke:#000d19;stroke-width:.5"/><circle cx="22" cy="126.684" r="11" fill="#ADD1B2" style="stroke:#181818;stroke-width:1"/><path d="M24.969 132.325q-.578.297-1.219.438-.64.156-1.344.156-2.5 0-3.828-1.64-1.312-1.657-1.312-4.782t1.312-4.781q1.328-1.656 3.828-1.656.703 0 1.344.156.656.156 1.219.453v2.719q-.625-.579-1.219-.844-.594-.281-1.219-.281-1.343 0-2.031 1.078-.687 1.062-.687 3.156t.687 3.172q.688 1.062 2.031 1.062.625 0 1.219-.265.594-.281 1.219-.86z"/><text x="41" y="132.57" fill="#D9B8FF" font-family="Helvetica" font-size="17" textLength="396">azure_cosmos_db_restorable_gremlin_database</text><rect width="411" height="39.789" x="20.5" y="206.58" fill="#3D176E" rx="2.5" ry="2.5" style="stroke:#000d19;stroke-width:.5"/><circle cx="35.5" cy="226.475" r="11" fill="#ADD1B2" style="stroke:#181818;stroke-width:1"/><path d="M38.469 232.115q-.578.297-1.219.438-.64.156-1.344.156-2.5 0-3.828-1.64-1.312-1.657-1.312-4.782t1.312-4.781q1.328-1.656 3.828-1.656.703 0 1.344.156.656.156 1.219.453v2.719q-.625-.578-1.219-.844-.594-.281-1.219-.281-1.343 0-2.031 1.078-.687 1.062-.687 3.156t.687 3.172q.688 1.062 2.031 1.062.625 0 1.219-.265.594-.281 1.219-.86z"/><text x="54.5" y="232.36" fill="#D9B8FF" font-family="Helvetica" font-size="17" textLength="369">azure_cosmos_db_restorable_gremlin_graph</text><path fill="none" d="M226 47.22v53.19" style="stroke:#1a83af;stroke-width:2"/><path fill="#1A83AF" d="m226 106.41 4-9-4 4-4-4z" style="stroke:#1a83af;stroke-width:2"/><path fill="none" d="M226 147.01v53.19" style="stroke:#1a83af;stroke-width:2"/><path fill="#1A83AF" d="m226 206.2 4-9-4 4-4-4z" style="stroke:#1a83af;stroke-width:2"/></svg>
